Numix/categories/48/applications-biology.svg

<svg width="47.5" xmlns="http://www.w3.org/2000/svg" height="47.5" viewBox="0 0 38 38" xmlns:xlink="http://www.w3.org/1999/xlink">
<g style="fill:#d78b85;stroke:#d78b85">
<g>
<path style="stroke-width:.31" d="M 110.786763 199.192383 C 111.566888 198.117661 111.323099 196.578854 110.226049 195.797238 L 71.341724 167.878892 C 70.244674 167.097276 68.708804 167.341531 67.92868 168.440678 C 67.148556 169.539826 67.392345 171.054207 68.489394 171.835823 L 107.398098 199.754169 C 108.495148 200.560211 110.006639 200.29153 110.786763 199.192383 Z " transform="matrix(.16023 0 0 .15993 -5.86865 -.48086)"/>
<path style="stroke-width:.301" d="M 104.93583 182.338788 C 105.910986 181.410619 106.008501 179.920663 105.130861 178.992494 L 74.096538 146.018069 C 73.218899 145.0899 71.731786 145.0899 70.732252 146.018069 C 69.757097 146.921813 69.659581 148.436194 70.537221 149.364363 L 101.571544 182.338788 C 102.449184 183.266957 103.960675 183.266957 104.93583 182.338788 Z " transform="matrix(.16023 0 0 .15993 -5.86865 -.48086)"/>
<path style="stroke-width:.31" d="M 195.795942 99.634044 C 196.746718 98.68145 196.746718 97.142643 195.795942 96.190049 L 161.933668 62.336306 C 160.982891 61.383711 159.447022 61.383711 158.496245 62.336306 C 157.545468 63.2889 157.545468 64.827707 158.496245 65.780301 L 192.358519 99.634044 C 193.309295 100.586639 194.845165 100.586639 195.795942 99.634044 Z " transform="matrix(.16023 0 0 .15993 -5.86865 -.48086)"/>
<path style="stroke-width:.304" d="M 193.845631 116.927298 C 194.845165 115.999129 194.918302 114.484748 194.016283 113.532154 L 162.445625 79.995942 C 161.567985 79.043348 160.056494 79.043348 159.056959 79.947091 C 158.081804 80.87526 158.008667 82.389641 158.886307 83.342236 L 190.481345 116.878447 C 191.358984 117.831042 192.870475 117.855467 193.845631 116.927298 Z " transform="matrix(.16023 0 0 .15993 -5.86865 -.48086)"/>
<path style="stroke-width:.249" d="M 176.902305 119.394274 C 178.023733 118.661509 178.560069 117.489085 178.09687 116.75632 L 161.397332 90.767588 C 160.934134 90.034823 159.617674 90.034823 158.496245 90.767588 C 157.350437 91.500353 156.814102 92.672777 157.277301 93.405542 L 174.001217 119.394274 C 174.464416 120.127039 175.756497 120.127039 176.902305 119.394274 Z " transform="matrix(.16023 0 0 .15993 -5.86865 -.48086)"/>
<path style="stroke-width:.295" d="M 166.175594 140.864289 C 167.126371 139.911694 167.199508 138.446164 166.346247 137.591271 L 135.750743 106.98612 C 134.897482 106.131227 133.41037 106.204504 132.459594 107.157098 C 131.508817 108.109693 131.43568 109.575223 132.31332 110.454541 L 162.884445 141.035267 C 163.762084 141.89016 165.224818 141.816883 166.175594 140.864289 Z " transform="matrix(.16023 0 0 .15993 -5.86865 -.48086)"/>
<path style="stroke-width:.232" d="M 100.181947 159.7452 C 101.327755 159.036861 101.961606 157.937713 101.571544 157.30265 L 87.675578 134.415956 C 87.285516 133.780893 86.042193 133.829744 84.896385 134.513658 C 83.726199 135.221998 83.116727 136.321145 83.506789 136.956208 L 97.402754 159.842902 C 97.792817 160.477965 99.03614 160.429114 100.181947 159.7452 Z " transform="matrix(.16023 0 0 .15993 -5.86865 -.48086)"/>
</g>
<g style="stroke-width:.31">
<path d="M 231.706042 47.119219 C 226.659613 49.708322 186.239418 36.469701 186.239418 36.469701 C 186.239418 36.469701 196.576066 71.276039 198.770166 80.972962 C 200.964266 90.694311 200.964266 105.129782 200.964266 105.129782 C 200.671719 111.700241 198.160694 113.581005 193.138643 119.223295 C 188.116593 124.865586 181.534293 123.937417 178.413796 123.302354 C 175.268919 122.691716 140.772794 114.533599 130.436146 111.700241 C 120.075119 108.891309 108.787695 111.407135 104.71642 114.216068 C 100.645146 117.049426 98.451046 124.865586 98.451046 124.865586 C 93.11207 147.776705 115.68692 193.843198 115.68692 193.843198 C 113.809745 198.874851 107.544371 203.882079 107.544371 203.882079 C 107.544371 203.882079 84.043124 142.427521 93.745921 123.302354 C 103.473097 104.177187 119.465647 104.494719 126.364872 104.494719 C 133.264097 104.494719 176.829168 117.342532 184.045318 117.049426 C 191.261469 116.731894 195.966594 120.17589 192.187867 99.487491 C 188.433518 78.799093 179.657119 51.198278 178.706342 44.603393 C 177.779944 38.032933 181.534293 34.271406 181.534293 34.271406 C 181.534293 34.271406 186.239418 28.311584 192.187867 29.239753 C 198.160694 30.192348 223.856041 39.278634 232.949366 43.040161 C 234.704645 43.772926 233.388186 46.264327 231.706042 47.119219 Z " transform="matrix(.16023 0 0 .15993 -5.86865 -.48086)"/>
<path d="M 247.698592 62.482859 C 227.317843 74.720034 212.251691 69.077744 204.109142 68.442681 C 195.966594 67.807618 170.880719 56.523037 164.907892 55.594868 C 158.959444 54.642273 154.254319 60.602095 154.254319 60.602095 C 154.254319 60.602095 150.49997 64.363622 151.450747 70.958507 C 152.377144 77.528967 161.153544 105.129782 164.907892 125.81818 C 168.68662 146.506579 163.981494 143.062584 156.765344 143.380115 C 149.549193 143.697647 105.984123 130.825408 99.084898 130.825408 C 92.185673 130.825408 76.193123 130.532302 66.465947 149.657469 C 56.76315 168.782635 68.976972 204.19961 68.976972 204.19961 C 68.976972 204.19961 85.920299 218.635081 84.335671 213.285896 C 84.335671 213.285896 65.856475 174.107394 71.171072 151.220701 C 71.171072 151.220701 73.365172 143.380115 77.436446 140.546757 C 81.532099 137.737824 92.819524 135.221998 103.156172 138.055356 C 113.49282 140.864289 147.988945 149.022406 151.133821 149.657469 C 154.254319 150.268106 160.836618 151.220701 165.858669 145.57841 C 170.880719 139.93612 173.391745 138.055356 173.70867 131.460471 C 173.70867 131.460471 173.70867 117.049426 171.514571 107.328077 C 169.320471 97.606728 158.959444 62.80039 158.959444 62.80039 C 158.959444 62.80039 196.990507 75.184119 200.988645 75.330672 C 208.814267 75.648203 223.539115 79.727262 235.460391 72.839271 C 247.381667 65.926854 247.698592 62.482859 247.698592 62.482859 Z " transform="matrix(.16023 0 0 .15993 -5.86865 -.48086)"/>
</g>
<g>
<path style="stroke-width:.306" d="M 144.063944 146.360026 C 145.01472 145.407432 145.039099 143.868625 144.112702 142.940456 L 111.103689 109.941605 C 110.177291 109.013436 108.641421 109.037862 107.690645 109.990456 C 106.739868 110.943051 106.739868 112.457432 107.666266 113.385601 L 140.675279 146.408877 C 141.601676 147.337046 143.113167 147.312621 144.063944 146.360026 Z " transform="matrix(.16023 0 0 .15993 -5.86865 -.48086)"/>
<path style="stroke-width:.324" d="M 158.496245 147.605727 C 159.447022 146.653132 159.373885 145.041049 158.325593 143.990753 L 121.342821 107.010545 C 120.294529 105.960249 118.685523 105.886972 117.734746 106.839567 C 116.783969 107.792161 116.857106 109.404244 117.905398 110.454541 L 154.88817 147.459174 C 155.912083 148.485045 157.545468 148.558321 158.496245 147.605727 Z " transform="matrix(.16023 0 0 .15993 -5.86865 -.48086)"/>
<path style="stroke-width:.249" d="M 124.390182 141.255097 C 125.267822 140.2048 125.414095 138.934674 124.755865 138.372887 L 101.108345 118.514956 C 100.425736 117.953169 99.182413 118.343977 98.329152 119.369848 C 97.451512 120.420145 97.305239 121.690271 97.963469 122.252057 L 121.610989 142.109989 C 122.293598 142.671776 123.536921 142.280968 124.390182 141.255097 Z " transform="matrix(.16023 0 0 .15993 -5.86865 -.48086)"/>
<path style="stroke-width:.31" d="M 232.803092 72.350761 C 233.753869 71.398166 233.753869 69.85936 232.803092 68.906765 L 198.940818 35.053022 C 197.990042 34.100428 196.429793 34.100428 195.479016 35.053022 C 194.52824 36.005617 194.52824 37.544423 195.479016 38.497018 L 229.34129 72.350761 C 230.292067 73.303355 231.852316 73.303355 232.803092 72.350761 Z " transform="matrix(.16023 0 0 .15993 -5.86865 -.48086)"/>
<path style="stroke-width:.296" d="M 213.933834 74.25595 C 214.982126 73.425483 215.225915 71.984378 214.470169 71.007358 L 187.604636 36.42085 C 186.84889 35.468256 185.386157 35.346128 184.313486 36.176595 C 183.240815 37.007062 182.997026 38.448167 183.752772 39.425187 L 210.618305 73.987269 C 211.374051 74.964289 212.861163 75.086417 213.933834 74.25595 Z " transform="matrix(.16023 0 0 .15993 -5.86865 -.48086)"/>
</g>
</g>
</svg>

<svg xmlns="http://www.w3.org/2000/svg" viewBox="0 0 256 256" xmlns:xlink="http://www.w3.org/1999/xlink">
<g style="fill:#d88b85;stroke:#d88b85">
<g transform="matrix(1.07945 0 0 1.07739 -39.53614 -3.23946)">
<path style="stroke-width:.31" d="m 110.792,199.203 c 0.786,-1.094 0.536,-2.618 -0.56,-3.402 L 71.33,167.879 c -1.094,-0.786 -2.619,-0.535 -3.402,0.561 l 0,0 c -0.787,1.094 -0.536,2.618 0.561,3.402 l 38.903,27.922 c 1.091,0.784 2.615,0.534 3.4,-0.561 l 0,0 z"/>
<path style="stroke-width:.301" d="m 104.933,182.338 c 0.979,-0.921 1.069,-2.423 0.196,-3.351 L 74.096,146.014 c -0.872,-0.928 -2.376,-0.933 -3.357,-0.006 l 0,0 c -0.979,0.922 -1.069,2.423 -0.196,3.351 l 31.032,32.973 c 0.874,0.927 2.376,0.93 3.358,0.006 l 0,0 z"/>
<path style="stroke-width:.31" d="m 195.802,99.639 c 0.951,-0.952 0.953,-2.499 0,-3.451 l -33.859,-33.86 c -0.952,-0.951 -2.498,-0.95 -3.451,0.002 l 0,0 c -0.951,0.951 -0.951,2.497 0,3.448 l 33.861,33.86 c 0.951,0.952 2.496,0.954 3.449,10e-4 l 0,0 z"/>
<path style="stroke-width:.304" d="m 193.854,116.922 c 0.981,-0.922 1.057,-2.437 0.167,-3.38 L 162.452,79.996 c -0.888,-0.945 -2.403,-0.962 -3.386,-0.038 l 0,0 c -0.98,0.921 -1.057,2.438 -0.168,3.379 l 31.572,33.549 c 0.889,0.942 2.403,0.958 3.384,0.036 l 0,0 z"/>
<path style="stroke-width:.249" d="m 176.894,119.397 c 1.133,-0.729 1.671,-1.912 1.201,-2.642 L 161.394,90.776 c -0.472,-0.729 -1.771,-0.731 -2.902,-0.005 l 0,0 c -1.135,0.727 -1.672,1.912 -1.203,2.642 l 16.703,25.98 c 0.468,0.73 1.769,0.732 2.902,0.004 l 0,0 z"/>
<path style="stroke-width:.295" d="m 166.174,140.867 c 0.95,-0.951 1.028,-2.421 0.166,-3.283 l -30.588,-30.588 c -0.86,-0.86 -2.333,-0.785 -3.283,0.166 l 0,0 c -0.953,0.952 -1.027,2.422 -0.167,3.283 l 30.587,30.588 c 0.862,0.861 2.331,0.787 3.285,-0.166 l 0,0 z"/>
<path style="stroke-width:.232" d="m 100.187,159.734 c 1.152,-0.701 1.767,-1.785 1.378,-2.432 L 87.679,134.423 c -0.392,-0.646 -1.64,-0.6 -2.792,0.099 l 0,0 c -1.152,0.7 -1.767,1.788 -1.378,2.432 l 13.887,22.88 c 0.388,0.645 1.639,0.6 2.791,-0.1 l 0,0 z"/>
</g>
<g style="stroke-width:.31" transform="matrix(1.07945 0 0 1.07739 -39.53614 -3.23946)">
<path d="m 231.701,47.122 c -5.037,2.587 -45.461,-10.659 -45.461,-10.659 0,0 10.346,34.801 12.541,44.521 2.195,9.72 2.195,24.142 2.195,24.142 -0.314,6.584 -2.822,8.465 -7.839,14.108 -5.017,5.643 -11.601,4.703 -14.735,4.076 -3.134,-0.627 -37.624,-8.779 -47.97,-11.601 -10.346,-2.821 -21.633,-0.313 -25.709,2.508 -4.076,2.821 -6.271,10.66 -6.271,10.66 -5.329,22.888 17.244,68.975 17.244,68.975 -1.882,5.017 -8.151,10.034 -8.151,10.034 0,0 -23.514,-61.451 -13.795,-80.576 9.72,-19.125 25.709,-18.811 32.607,-18.812 6.899,10e-4 50.478,12.855 57.688,12.541 7.213,-0.313 11.914,3.135 8.152,-17.558 -3.762,-20.693 -12.541,-48.283 -13.48,-54.867 -0.941,-6.583 2.821,-10.346 2.821,-10.346 0,0 4.702,-5.955 10.659,-5.017 5.957,0.94 31.666,10.032 40.758,13.796 1.75,0.724 0.431,3.21 -1.254,4.075 z"/>
<path d="m 247.691,62.485 c -20.379,12.228 -35.43,6.584 -43.58,5.957 -8.152,-0.628 -33.233,-11.914 -39.191,-12.854 -5.957,-0.94 -10.659,5.017 -10.659,5.017 0,0 -3.762,3.762 -2.822,10.346 0.941,6.584 9.719,34.174 13.481,54.866 3.763,20.693 -0.939,17.245 -8.152,17.559 -7.21,0.313 -50.79,-12.541 -57.688,-12.541 -6.897,0.001 -22.888,-0.313 -32.606,18.812 -9.72,19.124 2.508,54.554 2.508,54.554 0,0 16.931,14.422 15.363,9.092 0,0 -18.498,-39.19 -13.168,-62.078 0,0 2.195,-7.838 6.271,-10.659 4.076,-2.822 15.363,-5.33 25.709,-2.509 10.347,2.822 44.835,10.974 47.97,11.601 3.135,0.628 9.719,1.567 14.735,-4.076 5.016,-5.644 7.524,-7.524 7.838,-14.108 0,0 -10e-4,-14.423 -2.195,-24.142 -2.194,-9.719 -12.541,-44.521 -12.541,-44.521 0,0 38.026,12.381 42.014,12.541 7.838,0.313 22.572,4.389 34.487,-2.508 11.911,-6.9 12.226,-10.349 12.226,-10.349 z"/>
</g>
<g transform="matrix(1.07945 0 0 1.07739 -39.53614 -3.23946)">
<path style="stroke-width:.306" d="m 144.07,146.353 c 0.951,-0.95 0.972,-2.477 0.044,-3.404 l -33.007,-33.007 c -0.93,-0.931 -2.455,-0.908 -3.406,0.043 l 0,0 c -0.953,0.952 -0.971,2.478 -0.043,3.406 l 33.007,33.007 c 0.929,0.927 2.452,0.908 3.405,-0.045 l 0,0 z"/>
<path style="stroke-width:.324" d="m 158.492,147.606 c 0.951,-0.95 0.881,-2.567 -0.158,-3.607 l -36.991,-36.991 c -1.04,-1.039 -2.658,-1.11 -3.609,-0.16 l 0,0 c -0.952,0.953 -0.881,2.568 0.16,3.609 l 36.991,36.99 c 1.038,1.04 2.654,1.114 3.607,0.159 l 0,0 z"/>
<path style="stroke-width:.249" d="m 124.391,141.251 c 0.865,-1.034 1.03,-2.322 0.36,-2.879 L 101.1,118.521 c -0.664,-0.56 -1.907,-0.176 -2.771,0.856 l 0,0 c -0.867,1.033 -1.029,2.322 -0.363,2.879 l 23.652,19.851 c 0.666,0.559 1.907,0.176 2.773,-0.856 l 0,0 z"/>
<path style="stroke-width:.31" d="m 232.798,72.36 c 0.951,-0.951 0.952,-2.496 0,-3.448 l -33.86,-33.86 c -0.952,-0.952 -2.497,-0.952 -3.45,-10e-4 l 0,0 c -0.951,0.952 -0.951,2.498 0.001,3.45 l 33.86,33.86 c 0.952,0.952 2.496,0.953 3.449,-0.001 l 0,0 z"/>
<path style="stroke-width:.296" d="m 213.923,74.26 c 1.064,-0.828 1.313,-2.283 0.558,-3.258 l -26.87,-34.57 c -0.756,-0.972 -2.23,-1.09 -3.295,-0.263 l 0,0 c -1.064,0.827 -1.313,2.285 -0.558,3.257 l 26.87,34.571 c 0.756,0.972 2.231,1.09 3.295,0.263 l 0,0 z"/>
</g>
</g>
</svg>
